X: 4
T: The Irishman's Heart to the Ladies
P: piffero primo a0829
O:
F: http://ancients.sudburymuster.org/mus/ssp/pdf/adamsyorkC0.pdf
Z: 2019 John Chambers <jc:trillian.mit.edu>
M: 6/8
L: 1/8
K: A
a |\
ecA    BAF | AEE E2A/B/ | cdc ~cBA | cBB B2a |\
ecA    BAF | AEE E2A/B/ | cdc ~BAB | cAA A2 :|
|: z |\
cee {c}dff | cee ~ecA   | cee  eaf | ecA B2z |\
cee {c}dff | cee ~ecA   | cdc ~BAB | cAA A2 :|

% %sep 1 1 200
% %center - - - - - - - - - -
% Whatever we want at the bottom of each set belongs here.
